X: 1
T: Oh Lord It's Hard to be Humble
R: waltz
W: Oh Lord it's hard to be humble, When you're perfect in every way
W: I can't wait to look in the mirror, Cuz I get better lookin each day
W: To know me is to love me, I must be a hell of a man
W: Oh Lord it's hard to be humble, But I'm doin' the best that I can
W:
W: I used to have a girlfriend, But I guess she just couldn't compete
W: With all these love starved women, Who keep clamoring at my feet
W: Well I probably could find me another, But I guess they're all in awe of me
W: Who cares I never get lonesome, Cuz I treasure my own company
W:
W: Oh Lord it's hard to be humble, When you're perfect in every way
W: I can't wait to look in the mirror, Cuz I get better lookin each day
W: To know me is to love me, I must be a hell of a man
W: Oh Lord it's hard to be humble, But I'm doin the best that I can
W:
W: I guess you could say I am a loner, A cowboy all locked up and proud
W: Well I could have lots of friends if I wanted, But then I wouldn't stand out in a crowd
W: Some folks say that I'm egotistical, Hell I don't even know what that means
W: I guess it has something to do with the way, That I fill out my skin tight blue jeans
M: 3/4
L: 1/8
F: http://www.polishfireball.com/sbox/music/ohlorditshardtobehumble.gif
K: D
a2 \
[| "D"a4f2 | f3dd2 | d2A4- | A2z2FG | A2B2c2 | d3ef2 | "A7"g2e4- | e2z2g2 |
| "A7"g2e3^d | e2c3=c | ^c2A4- | A2z2aa | a2a2a2 | b2a2a2 | "D"f6- | f2z2a2 |
| "D"a4f2 | f4d2 | d2A4- | A2z2aa | a2a2a2 | "D7"d'3aa2 | "G"b6- | b2z2b2 |
| "G(Em)"b4g2 | "(A7)"g3ab2 | "D"a2f4- | f2f2g2 | "A7"a2a2a2 | g2f2e2 | "D"d6- | "fine"d2z4 |]
|| "D"z2d2d2 | z2A2A2 | z2d2d2 | z2A2A2 ||
[| "D"A2A3A | "G"B2d3d | "D"f2f4 | z2z2AA | A2A2A2 | A2B2d2 | "A7"e6- | e2z2g2 |
| "A7"g3ee2 | e4cc | c2A4- | A2z2aa | a4a2 | a4g2 | "D"f6- | f2z2a2 |
| "D"a2f3f | f2d3d | d2A4- | A2z2aa | a2a2a2 | "D7"a2g2a2 | "G"b6- | b2z2b2 |
| "G"b2g2g2 | "(A7)"g2a2b2 | "D"a2a2a2 | a2f2g2 | "A7"a2a2a2 | g2f2e2 | "D"d4z2 | "A7"a6 |]
